gama.ui.shared/icons_svg/dark/markers/marker.error.svg

<?xml version="1.0" encoding="UTF-8" standalone="no"?>
<!DOCTYPE svg PUBLIC "-//W3C//DTD SVG 1.1//EN" "http://www.w3.org/Graphics/SVG/1.1/DTD/svg11.dtd">
<svg xmlns="http://www.w3.org/2000/svg" xmlns:xl="http://www.w3.org/1999/xlink" version="1.1" xmlns:dc="http://purl.org/dc/elements/1.1/" viewBox="-863.9828 -3737.405 12 12" width="12" height="12">
  <defs/>
  <g id="SOURCES" stroke-opacity="1" fill="none" stroke="none" fill-opacity="1" stroke-dasharray="none">
    <title>SOURCES</title>
    <g id="SOURCES_New">
      <title>New</title>
      <g id="Group_7950">
        <title>markers/marker.error.dark</title>
        <g id="Graphic_7952">
          <circle cx="-857.9828" cy="-3731.405" r="4.06250649147696" fill="white"/>
        </g>
        <g id="Graphic_7951">
          <path d="M -857.9828 -3737.405 C -861.3008 -3737.405 -863.9828 -3734.723 -863.9828 -3731.405 C -863.9828 -3728.087 -861.3008 -3725.405 -857.9828 -3725.405 C -854.6648 -3725.405 -851.9828 -3728.087 -851.9828 -3731.405 C -851.9828 -3734.723 -854.6648 -3737.405 -857.9828 -3737.405 Z M -854.9828 -3729.251 L -855.8288 -3728.405 L -857.9828 -3730.559 L -860.1368 -3728.405 L -860.9828 -3729.251 L -858.8288 -3731.405 L -860.9828 -3733.559 L -860.1368 -3734.405 L -857.9828 -3732.251 L -855.8288 -3734.405 L -854.9828 -3733.559 L -857.1368 -3731.405 L -854.9828 -3729.251 Z" fill="#ff0818"/>
        </g>
      </g>
    </g>
  </g>
</svg>

<svg height="12" viewBox="-863.983 -3737.405 12 12" width="12" xmlns="http://www.w3.org/2000/svg"><g fill="none"><circle cx="-857.983" cy="-3731.405" fill="#fff" r="4.063"/><path d="m-857.9828-3737.405c-3.318 0-6 2.682-6 6s2.682 6 6 6 6-2.682 6-6-2.682-6-6-6zm3 8.154-.846.846-2.154-2.154-2.154 2.154-.846-.846 2.154-2.154-2.154-2.154.846-.846 2.154 2.154 2.154-2.154.846.846-2.154 2.154z" fill="#ff0818"/></g></svg>
